svg/emoji_u1fa94.svg

<?xml version="1.0" encoding="UTF-8" standalone="no"?>
<!DOCTYPE svg PUBLIC "-//W3C//DTD SVG 1.1//EN" "http://www.w3.org/Graphics/SVG/1.1/DTD/svg11.dtd">
<svg width="100%" height="100%" viewBox="0 0 128 128" version="1.1" xmlns="http://www.w3.org/2000/svg" xmlns:xlink="http://www.w3.org/1999/xlink" xml:space="preserve" xmlns:serif="http://www.serif.com/" style="fill-rule:evenodd;clip-rule:evenodd;stroke-linejoin:round;stroke-miterlimit:1.41421;">
    <g transform="matrix(1.69692,0,0,1.69692,-55.1825,-44.7075)">
        <path d="M80.737,61.81C73.018,60.756 67.107,59.542 57.581,58.649C53.289,58.246 46.835,57.14 42.721,59.788C31.07,67.287 41.896,84.84 52.649,86.638C61.754,88.16 69.729,85.97 77.481,81.075C80.521,79.156 83.058,76.53 85.975,74.429C87.985,72.981 94.253,67.598 96.521,65.64C96.668,65.513 96.728,65.311 96.672,65.124C96.617,64.937 96.457,64.8 96.264,64.774C93.615,64.398 86.607,63.333 80.737,61.81" style="fill:rgb(219,79,54);"/>
    </g>
    <g transform="matrix(0.27395,0.0734046,-0.0734046,0.27395,94.5114,21.6916)">
        <path d="M80.95,123.07C100.176,102.653 83.645,75.971 83.077,63.402C82.919,59.904 82.97,53.89 84.04,50.59C85.14,47.17 86.09,43.73 86.77,40.19C89.05,28.47 88.42,14.97 80.13,5.6C78.73,4 75.2,0.3 72.87,0.22C71.43,0.18 72.85,1.88 73.25,2.45C74.06,3.62 74.74,4.89 75.26,6.22C81.39,21.86 66.28,33.77 56.35,43.04C51.59,47.49 48.025,52.363 44.37,57.72C41.225,62.329 21.249,84.036 28.1,104.83C33.261,120.493 51.48,129.99 67.56,127.33C71.95,126.61 77.883,126.327 80.95,123.07Z" style="fill:rgb(237,108,48);fill-rule:nonzero;"/>
        <path d="M68.13,106.07C70.25,107.85 73.22,106.98 75.22,105.46C76.29,104.65 77.21,103.61 77.81,102.4C78.06,101.88 78.35,101.22 78.35,100.63C78.35,99.84 77.88,99.06 78.08,98.25C79.76,97.92 81.84,102.75 82.05,103.87C83.73,112.7 75.41,119.98 67.38,121.39C53.83,123.76 46.04,111.89 47.6,101.35C48.57,94.79 52.97,90.28 57.45,85.78C61.16,82.05 64.6,78.85 65.8,74C66.01,73.14 65.96,71.82 65.71,70.97C65.5,70.24 65.1,69.57 65.08,68.78C65.02,67.12 66.63,69.29 67,69.71C71.46,74.74 72.73,82.17 71.54,88.67C70.77,92.87 67.77,95.87 66.72,99.89C66.11,102.18 66.17,104.41 68.13,106.07Z" style="fill:rgb(252,194,27);fill-rule:nonzero;"/>
    </g>
    <g transform="matrix(1.69692,0,0,1.19926,-55.1825,-14.4474)">
        <path d="M86.201,66.878C79.295,63.972 64.952,59.849 53.436,61.005C49.56,61.394 43.235,61.957 42.622,67.016C41.932,72.72 49.302,75.933 53.677,77.339C66.173,81.357 78.752,75.599 89.505,69.095C89.707,68.972 89.827,68.675 89.801,68.367C89.774,68.058 89.608,67.811 89.391,67.76C88.325,67.537 87.017,67.221 86.201,66.878Z" style="fill:rgb(252,174,27);"/>
    </g>
</svg>

<?xml version="1.0" encoding="UTF-8" standalone="no"?>
<!-- Generator: Adobe Illustrator 25.2.3, SVG Export Plug-In . SVG Version: 6.00 Build 0)  -->

<svg
   version="1.1"
   id="Layer_2"
   x="0px"
   y="0px"
   viewBox="0 0 128 128"
   style="enable-background:new 0 0 128 128;"
   xml:space="preserve"
   sodipodi:docname="emoji_u1fa94.svg"
   inkscape:version="1.2.2 (732a01da63, 2022-12-09)"
   xmlns:inkscape="http://www.inkscape.org/namespaces/inkscape"
   xmlns:sodipodi="http://sodipodi.sourceforge.net/DTD/sodipodi-0.dtd"
   xmlns="http://www.w3.org/2000/svg"
   xmlns:svg="http://www.w3.org/2000/svg"><defs
   id="defs37098" /><sodipodi:namedview
   id="namedview37096"
   pagecolor="#ffffff"
   bordercolor="#000000"
   borderopacity="0.25"
   inkscape:showpageshadow="2"
   inkscape:pageopacity="0.0"
   inkscape:pagecheckerboard="0"
   inkscape:deskcolor="#d1d1d1"
   showgrid="false"
   inkscape:zoom="4.2421875"
   inkscape:cx="48.913444"
   inkscape:cy="63.882136"
   inkscape:window-width="1366"
   inkscape:window-height="697"
   inkscape:window-x="-8"
   inkscape:window-y="-8"
   inkscape:window-maximized="1"
   inkscape:current-layer="Layer_2" />
<path
   style="fill:#891E0D;"
   d="M56.1,81.32c-0.6,0.24-52.2,0.39-52.2,0.39s-1.02,6.57,2.98,15.1c2.7,5.75,7.07,13.65,12.75,18.35  c3.46,2.86,10.84,9.29,29.55,9.41c20.38,0.13,28.12-9.18,32.53-13.35c4.41-4.17,10.61-12.99,15.13-17.4s9.41-7.39,9.77-11.56  c0.36-4.17-2.74-4.29-2.74-4.29L56.1,81.32z"
   id="path37011" />
<path
   style="fill:#D75010;"
   d="M48.95,106.82c20.49-0.82,27.29-8.1,40.99-16.33c11.74-7.04,16.21-9.65,16.21-11.44  s-10.79-5.11-17.04-7.98c-8.82-4.05-21.81-11.8-44.69-11.92c-19.67-0.1-40.56,7.87-40.56,23.12  C3.87,97.76,29.18,107.61,48.95,106.82z"
   id="path37013" />
<path
   style="fill:#FE9700;"
   d="M35.79,67.38l-9.91,2.34L15.22,75.8l-1.17,6.82l1.81,2.98l66.29,0.96l9.06-6.29  c0,0-3.52-1.81-4.16-2.24c-0.64-0.43-24.3-8.42-24.62-8.31C62.11,69.83,35.79,67.38,35.79,67.38z"
   id="path37015" />
<path
   style="fill:#D85F11;"
   d="M15.54,86.99c0,0,0.85-3.75,5.33-7.14c4.37-3.3,11.34-6.55,25.21-5.89  c12.77,0.61,22.32,5.03,26.9,8.02c4.58,2.98,7.99,5.44,7.99,5.44l-13.32,6.82l-16.52,4.16c0,0-23.34-2.34-24.41-3.3  C25.66,94.13,15.54,86.99,15.54,86.99z"
   id="path37017" />

<g
   id="g37023">
	<path
   style="fill:#FFE36A;"
   d="M48.2,99.26c-2.47,0-5.12-0.12-8.02-0.37c-13.89-1.2-30.17-8.17-27.98-18.06   c1.93-8.72,13.68-14.91,32.82-14.95c20.26-0.04,46.25,12.5,47.35,13.01c0,0,1.07,0.43,1.14,1.11c0.07,0.75-0.84,1.42-0.84,1.42   c-0.32,0.26-8.02,6.39-19.13,11.89C66.22,96.94,59.07,99.26,48.2,99.26z M43.19,68.87c-16.75,0-27.39,6.03-27.82,12.4   C14.84,89.1,28.04,94.83,40.44,95.9c15.03,1.3,23.03-0.95,31.77-5.28c7.57-3.75,13.62-7.88,16.58-10.04   c-6.84-2.97-27.61-11.39-43.83-11.7C44.37,68.87,43.77,68.87,43.19,68.87z"
   id="path37021" />
</g>

<path
   style="fill:#FFA821;"
   d="M4.86,80.61c-0.06,1.44,1.22,2.44,3.27,2.33c1.78-0.1,3-0.93,2.94-2.44  c-0.06-1.39-1.03-2.34-2.88-2.33C6.08,78.17,4.92,79.15,4.86,80.61z"
   id="path37027" />
<path
   style="fill:#FFA821;"
   d="M15.83,91.57c-1.33-0.1-3.22,0.78-3.11,2.88s2.22,2.55,3.33,2.44c1.21-0.12,2.59-0.78,2.72-2.5  C18.88,92.96,18.1,91.74,15.83,91.57z"
   id="path37029" />
<path
   style="fill:#FFA821;"
   d="M34.12,99.27c-1.5-0.02-3.24,0.89-3.24,2.68c0,1.62,1.47,2.61,3.49,2.64  c1.96,0.03,3.19-1.14,3.15-2.71C37.5,100.77,36.7,99.3,34.12,99.27z"
   id="path37031" />
<path
   style="fill:#FFA821;"
   d="M55.31,99.95c-2.29,0.22-3.27,1.6-3.17,2.93c0.1,1.33,1.29,2.5,3.52,2.28  c2.62-0.25,3.22-1.39,3.16-2.69S57.74,99.72,55.31,99.95z"
   id="path37033" />
<path
   style="fill:#FFA821;"
   d="M72.89,94.55c-1.58,0.72-2.25,2.24-1.5,3.55c0.65,1.14,2.66,1.03,3.91,0.23  c1.24-0.8,1.92-1.97,1.24-3.31C75.95,93.87,74.39,93.87,72.89,94.55z"
   id="path37035" />
<path
   style="fill:#FFA821;"
   d="M85.99,89.64c0.98,1.32,2.51,0.85,3.72-0.03c1.18-0.86,1.56-2.18,0.95-3.19  c-0.62-1.01-2.18-1.01-3.55-0.1S85.24,88.63,85.99,89.64z"
   id="path37037" />
<path
   style="fill:#FFA821;"
   d="M96.81,81.61c0.88,0.95,2.43,0.9,3.72,0.07c1.4-0.91,1.63-2.22,0.75-2.84s-2.16-0.64-3.42,0.03  C97.13,79.26,95.9,80.63,96.81,81.61z"
   id="path37039" />
<path
   style="fill:#FFA821;"
   d="M66.15,65.25c-0.46,1.21-0.26,2.64,2.02,3.19c2.28,0.55,3.21-0.48,3.42-1.47  c0.26-1.21-0.59-2.41-2.18-2.74C67.81,63.92,66.55,64.2,66.15,65.25z"
   id="path37041" />
<path
   style="fill:#FFA821;"
   d="M47.5,62.28c-0.15,1.19,0.59,2.31,2.93,2.51s3.29-0.63,3.37-2.09c0.09-1.69-1.61-2.19-3.1-2.34  C49.13,60.2,47.68,60.83,47.5,62.28z"
   id="path37043" />
<path
   style="fill:#FFA821;"
   d="M30.19,63.49c0.09,1.18,1.26,2.08,3.22,1.79c1.96-0.29,2.77-1.27,2.56-2.56  c-0.21-1.28-1.52-1.93-3.07-1.8C31.3,61.04,30.08,62.05,30.19,63.49z"
   id="path37045" />
<path
   style="fill:#FFA821;"
   d="M15.81,66.62c-1.59,0.66-1.92,2.84-0.65,3.59s2.97,0.73,4.2-0.23c1.46-1.14,1.31-2.76,0.2-3.35  C18.37,65.99,17.16,66.06,15.81,66.62z"
   id="path37047" />
<path
   style="fill:#91C354;"
   d="M8.45,74.38c0.34,1.22,1.43,1.83,3.35,1.42c1.75-0.37,2.68-1.56,2.43-2.87  c-0.26-1.31-1.48-2.13-3.45-1.68C8.86,71.69,8.13,73.24,8.45,74.38z"
   id="path37049" />
<path
   style="fill:#91C354;"
   d="M6.74,88.08c0.08,1.6,1.36,2.56,2.92,2.56c1.63,0,2.95-1,2.91-2.59c-0.05-1.71-1.21-2.44-2.93-2.48  C8.44,85.55,6.64,86.13,6.74,88.08z"
   id="path37051" />
<path
   style="fill:#91C354;"
   d="M21.19,98.67c-0.09,1.87,1.38,2.87,3.17,2.87c1.79,0,2.96-0.88,3.05-2.67  c0.1-1.79-1.36-2.59-3.09-2.62C22.6,96.21,21.27,96.93,21.19,98.67z"
   id="path37053" />
<path
   style="fill:#91C354;"
   d="M41.68,102.82c0.06,1.5,1.38,2.49,3.33,2.55c1.99,0.07,3.47-0.89,3.48-2.78  c0.01-1.52-1.4-2.55-3.52-2.55C43.01,100.04,41.61,101.13,41.68,102.82z"
   id="path37055" />
<path
   style="fill:#91C354;"
   d="M62.07,101.66c0.53,1.51,2.22,1.76,4.17,1.08c1.96-0.68,2.66-2.35,2.25-3.49  c-0.52-1.43-2.31-1.73-3.95-1.24C62.91,98.5,61.42,99.8,62.07,101.66z"
   id="path37057" />
<path
   style="fill:#91C354;"
   d="M80.37,90.47c-1.23,0.76-1.92,2.15-1.17,3.36c0.75,1.21,2.54,0.91,3.61,0.16  c1.18-0.82,1.99-2.18,1.08-3.39C82.91,89.31,81.32,89.89,80.37,90.47z"
   id="path37059" />
<path
   style="fill:#91C354;"
   d="M92.86,82.66c-1.23,0.74-1.57,2.15-0.78,3.12c0.74,0.91,2.35,0.69,3.3,0.04  c0.95-0.65,1.53-2.14,0.49-3.13C95.1,81.95,93.85,82.07,92.86,82.66z"
   id="path37061" />
<path
   style="fill:#91C354;"
   d="M73.92,67.48c-0.72,1.47,0.26,2.74,1.63,3.26c1.37,0.52,2.61,0.03,3.03-0.78s0.16-2.31-1.6-3  C75.23,66.27,74.21,66.89,73.92,67.48z"
   id="path37063" />
<path
   style="fill:#91C354;"
   d="M56.83,63.43c-0.23,1.7,0.9,2.53,2.72,2.76c1.78,0.22,3.17-0.28,3.43-1.86  c0.26-1.6-1.14-2.44-2.51-2.74C59.09,61.3,57.04,61.84,56.83,63.43z"
   id="path37065" />
<path
   style="fill:#91C354;"
   d="M38.56,62.39c0,1.4,1.3,2.23,3.11,2.19c1.99-0.04,3.07-0.77,3.06-2.23c-0.01-1.31-1.29-2.26-3.1-2.26  C39.77,60.09,38.56,61.13,38.56,62.39z"
   id="path37067" />
<path
   style="fill:#91C354;"
   d="M24.1,63.05c-2.37,0.47-2.23,2.13-1.89,2.98c0.39,0.98,1.75,1.5,3.22,1.19  c1.97-0.41,2.64-1.83,2.18-2.87C27.07,63.11,25.67,62.74,24.1,63.05z"
   id="path37069" />
<radialGradient
   id="SVGID_1_"
   cx="93.645"
   cy="9.376"
   r="57.5758"
   gradientUnits="userSpaceOnUse">
	<stop
   offset="0.4179"
   style="stop-color:#FFCF18"
   id="stop37071" />
	<stop
   offset="0.6005"
   style="stop-color:#FFCC16"
   id="stop37073" />
	<stop
   offset="0.7438"
   style="stop-color:#FEC212"
   id="stop37075" />
	<stop
   offset="0.8733"
   style="stop-color:#FDB10A"
   id="stop37077" />
	<stop
   offset="0.9821"
   style="stop-color:#FC9D00"
   id="stop37079" />
</radialGradient>



<radialGradient
   id="SVGID_2_"
   cx="91.3772"
   cy="51.1426"
   r="49.412"
   gradientTransform="matrix(0.0162 -0.9999 0.741 0.012 52.002 141.8952)"
   gradientUnits="userSpaceOnUse">
	<stop
   offset="0.184"
   style="stop-color:#FFD874"
   id="stop37088" />
	<stop
   offset="1"
   style="stop-color:#FFD874;stop-opacity:0"
   id="stop37090" />
</radialGradient>

<g
   id="g11658"
   transform="matrix(0.50210046,0,0,0.50210046,63.902076,21.614381)"
   style="stroke-width:1.99163"><path
     d="m 98.59,51.16 c -4.23,0.92 -7.88,3.28 -9.59,7.35 -1.03,2.47 -2.47,8.85 -6.42,7.2 -1.89,-0.78 -1.86,-3.49 -1.64,-5.18 0.47,-3.47 2.03,-6.64 3.1,-9.94 1.1,-3.42 2.05,-6.86 2.73,-10.4 C 89.05,28.47 88.42,14.97 80.13,5.6 78.73,4 75.2,0.3 72.87,0.22 c -1.44,-0.04 -0.02,1.66 0.38,2.23 0.81,1.17 1.49,2.44 2.01,3.77 6.13,15.64 -8.98,27.55 -18.91,36.82 -4.76,4.45 -8.56,9.17 -11.98,14.68 -0.34,0.53 -1.09,2.31 -2.06,1.94 -1.15,-0.44 -1.27,-3.07 -1.63,-4.05 -0.68,-1.88 -1.73,-3.93 -3.08,-5.4 -2.61,-2.86 -6.26,-4.79 -10.21,-4.53 -0.15,0.01 -0.58,0.08 -1.11,0.2 -0.83,0.18 -3.05,0.47 -2.45,1.81 0.31,0.69 1.22,0.63 1.87,0.82 8.34,2.56 8.15,11.3 6.8,18.32 -2.44,12.78 -9.2,24.86 -4.4,38 5.66,15.49 23.38,25.16 39.46,22.5 4.39,-0.72 9.45,-2.14 13.39,-4.26 4.19,-2.26 8.78,-5.35 12.05,-8.83 4.21,-4.47 6.89,-10.2 7.68,-16.27 0.93,-7.02 -1.31,-13.64 -3.35,-20.27 -2.46,-8 -5.29,-21.06 4.93,-24.97 0.5,-0.2 1.5,-0.35 1.85,-0.88 1.3,-1.94 -4.94,-0.81 -5.52,-0.69 z"
     style="fill:#ed6c30;stroke-width:1.99163"
     id="path11654" /><path
     d="m 68.13,106.07 c 2.12,1.78 5.09,0.91 7.09,-0.61 1.07,-0.81 1.99,-1.85 2.59,-3.06 0.25,-0.52 0.54,-1.18 0.54,-1.77 0,-0.79 -0.47,-1.57 -0.27,-2.38 1.68,-0.33 3.76,4.5 3.97,5.62 1.68,8.83 -6.64,16.11 -14.67,17.52 -13.55,2.37 -21.34,-9.5 -19.78,-20.04 0.97,-6.56 5.37,-11.07 9.85,-15.57 3.71,-3.73 7.15,-6.93 8.35,-11.78 0.21,-0.86 0.16,-2.18 -0.09,-3.03 -0.21,-0.73 -0.61,-1.4 -0.63,-2.19 -0.06,-1.66 1.55,0.51 1.92,0.93 4.46,5.03 5.73,12.46 4.54,18.96 -0.77,4.2 -3.77,7.2 -4.82,11.22 -0.61,2.29 -0.55,4.52 1.41,6.18 z"
     style="fill:#fcc21b;stroke-width:1.99163"
     id="path11656" /></g></svg>
